packages/netlify-cms-ui-default/src/Icon/images/markdown.svg

<svg viewBox="0 0 24 24"><path d="m1 17v-9h2.75l2.75 3.3088235 2.75-3.3088235h2.75v9h-2.75v-5.1617647l-2.75 3.3088235-2.75-3.3088235v5.1617647zm18 0-4-4.3676471h2.6666667v-4.6323529h2.6666666v4.6323529h2.6666667z"/></svg>

<svg viewBox="0 0 24 24"><path d="M1,17 L1,8 L3.75,8 L6.5,11.3088235 L9.25,8 L12,8 L12,17 L9.25,17 L9.25,11.8382353 L6.5,15.1470588 L3.75,11.8382353 L3.75,17 L1,17 Z M19,17 L15,12.6323529 L17.6666667,12.6323529 L17.6666667,8 L20.3333333,8 L20.3333333,12.6323529 L23,12.6323529 L19,17 Z"/></svg>
